icons/op-arrow-up1-24.svg

<svg width="24" height="24" viewBox="0 0 24 24" fill="none" xmlns="http://www.w3.org/2000/svg">
<path d="M11.0625 7.41636L4.375 14.5539C3.875 15.0892 3.875 16.0409 4.375 16.5762C4.90625 17.1413 5.75 17.1413 6.25 16.5762L12 10.4498L17.7188 16.5762C18.25 17.1413 19.0938 17.1413 19.625 16.5762C19.875 16.3085 20 15.9517 20 15.5651C20 15.1784 19.875 14.8216 19.625 14.5539L12.9375 7.41636C12.6875 7.1487 12.3438 7 12 7C11.625 7 11.3125 7.1487 11.0625 7.41636Z" fill="black"/>
</svg>

<svg xmlns="http://www.w3.org/2000/svg" width="24" height="24" viewBox="0 0 24 24"><path d="m11.062 7.416-6.687 7.138c-.5.535-.5 1.487 0 2.022.531.565 1.375.565 1.875 0L12 10.45l5.719 6.126a1.284 1.284 0 0 0 1.906 0c.25-.268.375-.624.375-1.011 0-.387-.125-.743-.375-1.011l-6.687-7.138A1.296 1.296 0 0 0 12 7c-.375 0-.688.149-.938.416Z"/></svg>
